X:16
T:Bourree valsee d'Issoudun
Z:Jack Campin, 2014
F:http://www.campin.me.uk/Music/YoupNannetteD.abc
S:p24, p1000213.jpg
M:3/8
L:1/8
Q:1/4=120
K:G
D|GGF|G2F/G/|A```BG      |A2\
D|AAB|A2G/F/|E```FE      |D2:|
B|BdB|AcA   |G```G/A/G/A/|BG\
B|BdB|AcA   |G/F/EF      |G2:|

